assets/icons/supported_selectable_icons/logos/financial_institutions/228.svg

<svg xmlns="http://www.w3.org/2000/svg" width="500" height="500" fill="none"><path fill="#75C044" d="m224.343 224.028 26.162-45.19-21.146-36.585h-89.131c-1.897.185-3.816.713-5.586 1.741A13.24 13.24 0 0 0 128 155.523a13.2 13.2 0 0 0 1.398 5.936l65.395 113.637 21.203-36.671h.014z"/><path fill="#00AE9D" d="m229.355 142.256 55.62 96.172h42.258l44.454-77.238a13.14 13.14 0 0 0 1.313-5.671c0-7.049-5.558-12.814-12.549-13.263z"/><path fill="#BFD730" d="M324.084 238.427H216.005l-21.218 36.664 44.761 77.102c1.099 1.612 2.512 2.996 4.274 4.023A13.2 13.2 0 0 0 250.45 358c4.338 0 8.59-2.176 11.13-6.029l65.651-113.544z"/></svg>

<svg width="500" height="500" viewBox="0 0 500 500" fill="none" xmlns="http://www.w3.org/2000/svg">
<path d="M224.343 224.028L250.505 178.838L229.359 142.253H140.228C138.331 142.438 136.412 142.966 134.642 143.994C130.376 146.448 127.986 150.921 128 155.523C128 157.535 128.442 159.54 129.398 161.459L194.793 275.096L215.996 238.425H216.01L224.343 224.028Z" fill="#75C044"/>
<path d="M229.355 142.256L284.975 238.428H324.086H327.233L371.687 161.19C372.494 159.507 373 157.573 373 155.519C373 148.47 367.442 142.705 360.451 142.256H229.355Z" fill="#00AE9D"/>
<path d="M324.084 238.427H216.005L194.787 275.091L239.548 352.193C240.647 353.805 242.06 355.189 243.822 356.216C245.905 357.422 248.181 358 250.45 358C254.788 358 259.04 355.824 261.58 351.971L327.231 238.427H324.084Z" fill="#BFD730"/>
</svg>
